X: 1
T: Miss MacKenzie of Gairloch
R: strathspey
B: Athole, as played by Jerry Holland
Z: arr. T. Traub 9/12/09
M: 4/4
L: 1/8
K: Am
B |\
"Am"A/A/A c>d e>d e<g | "G"G/G/G B>d g>ed>B |\
"Am"A/A/A c>d e>d e<g | "G"G/G/G B>d "Am"e>A A :|
g |\
"Am"a>g e<a e>dc<A | "G"g>ed>g d>c B<G |\
"Am"a>g e<a e>dc>A | "G"G/G/G B>d "Am"e<A A ||
g |\
"Am"a>g e<a e>d c<A | "G"g>ed>g d>c B<G |\
"Am"A>Bd>e d>e g<a | "G"G/G/G B>d "Am"e<A A |]
